X:448
T:Reel 448
M:4/4
K:Gmaj
L:1/8
G>B (3BAB c>B (3AGF |G>B (3BcB c2BcA|G>c (3BAG d2BABd| (3efg  (3fga b>g (3fgA | (3GAB  (3BAB c>A (3AGA |=f>f (3gfe f>g (3fgf |g>d (3dff g2:||:g>ab>g (3gfg |d>=fe>f  (3cfe f2||e>c (3cBc =f2fg|a>f (3fga c'>d' (3aga |g>f (3fed e2 (3cBc | (3efg fd ede>G (3gfg | (3efg  (3fgf g>e (3def |g>G (3GFG G>G (3GGG |B>A (3AAA A>d (3cAA |A>A (3AAA e2f>A| (3efg f>g  (3efg d>
